X:150
T:Would You Have a Young Virgin?
M:6/8
L:1/8
K:D
P:A
F2G|"D"ABA AFA|d2A AFG|"D"ABA AFA|"A"e2A AFG|
"D"ABA AFB|d2d "A"e2e|"D"fed "A"edc|"D"d3:|
P:B
|:d2e|"D"fed fed|"A"e2A A3|"D"fed fed|"A7"g2e e3|
"D"fed fed|fef "G"gfe|"D"fed "A"edc|"D"d3:|

